X: 1766
T: O'Neill's Hornpipe   #1
R: hornpipe
%S: s:4 b:16(4+4+4+4)
B: O'Neill's 1850 #1766
Z: "Transcribed by Bob Safranek, rjs@gsp.org"
M: C|
L: 1/8
K: A
  e>d \
| c>eA>c E>AC>E | ((3A,CE) ((3Ace) a2b>a | g>be>g B>eG>B | ((3EGB) ((3egb) e'2e>d |
| c>eA>c E>AC>E | ((3A,CE) ((3Ace) a>c'b>a | g>be>g f>a^d>f | e>Bg>B e2 :|
|: d>e \
| f>A,D>F A>df>a | e>A,C>E A>df>a | g>B,E>G B>dg>a | b>ag>f e>cd>e |
| f>A,D>F A>df>a | e>A,C>E A>ce>a | g>eb>g e>dB>e | A2[a2c] [a2c] :|
